X:1
T:Promenade (Pictures at an Exhibition)
C:Modest Mussorgsky
M:5/4
L:1/4
Q:1/4=108
K:Bb
%%MIDI program 0
B B B e f | B f B e d | e e e f e | d c B f B |
B B B e f | B f B e d | c d e f e | d c B B B |]
